X:472
T:Walking in My Sleep
C:Old-Time/Bluegrass
N:Transcribed by Kim Davis and Mike Stangeland
R:bluegrass
L:1/8
Q:1/4=220
M:4/4
K:G
z6 B,A, |: "G"G,A, B,C DG Bd | B4 zd BA | G4 {g}e4 | "D"[f6d6] dB | AG FA DF DE | 
|1 [c3E3]d c2 A2 | "G"BA GB "D"AG FA | "G"G6 B,A, :|2 [E2G,2] [c2E2] [c3E3]A | 
"G"BA GB "D"AG FA | "G"G6 g2 |: "G"zb ge dg ef | gf gf ge gb | ge dc BA GD | "D"F2 [A6A6] | 
fa zb a3e | fe df ef ef | ge dc Bd AF |1 [B6G6] g2 :|2 [B8G8] | 


